suru-icons/status/scalable/battery-080-charging.svg

<?xml version="1.0" encoding="UTF-8" standalone="no"?>
<!-- Created with Inkscape (http://www.inkscape.org/) -->

<svg
   xmlns:dc="http://purl.org/dc/elements/1.1/"
   xmlns:cc="http://creativecommons.org/ns#"
   xmlns:rdf="http://www.w3.org/1999/02/22-rdf-syntax-ns#"
   xmlns:svg="http://www.w3.org/2000/svg"
   xmlns="http://www.w3.org/2000/svg"
   xmlns:sodipodi="http://sodipodi.sourceforge.net/DTD/sodipodi-0.dtd"
   xmlns:inkscape="http://www.inkscape.org/namespaces/inkscape"
   width="105"
   height="90"
   id="svg6138"
   version="1.1"
   inkscape:version="0.48+devel r"
   viewBox="0 0 105 90.000001"
   sodipodi:docname="battery-080-charging.svg">
  <defs
     id="defs6140" />
  <sodipodi:namedview
     id="base"
     pagecolor="#ffffff"
     bordercolor="#666666"
     borderopacity="1.0"
     inkscape:pageopacity="0.0"
     inkscape:pageshadow="2"
     inkscape:zoom="5.0931703"
     inkscape:cx="-0.098169504"
     inkscape:cy="42.772963"
     inkscape:document-units="px"
     inkscape:current-layer="g6219"
     showgrid="true"
     fit-margin-top="0"
     fit-margin-left="0"
     fit-margin-right="0"
     fit-margin-bottom="0"
     inkscape:snap-global="true"
     inkscape:snap-bbox="true"
     inkscape:bbox-paths="true"
     inkscape:snap-bbox-midpoints="true"
     inkscape:snap-bbox-edge-midpoints="true"
     inkscape:bbox-nodes="true"
     inkscape:object-paths="true"
     inkscape:snap-intersection-paths="true"
     inkscape:object-nodes="true"
     inkscape:snap-smooth-nodes="true"
     inkscape:snap-midpoints="true"
     inkscape:snap-others="true"
     inkscape:snap-object-midpoints="true"
     inkscape:snap-center="true"
     showguides="false"
     inkscape:guide-bbox="true">
    <sodipodi:guide
       orientation="0,1"
       position="90.000001,87.000004"
       id="guide4064" />
    <sodipodi:guide
       orientation="0,1"
       position="89.000001,84.000004"
       id="guide4066" />
    <sodipodi:guide
       orientation="1,0"
       position="3.0000007,69.000004"
       id="guide4068" />
    <sodipodi:guide
       orientation="1,0"
       position="6.0000007,60.000004"
       id="guide4070" />
    <sodipodi:guide
       orientation="1,0"
       position="87.000001,58.000004"
       id="guide4072" />
    <sodipodi:guide
       orientation="1,0"
       position="84.000001,47.000004"
       id="guide4074" />
    <sodipodi:guide
       orientation="0,1"
       position="77.000001,3.000004"
       id="guide4076" />
    <sodipodi:guide
       orientation="0,1"
       position="81.000001,6.000004"
       id="guide4078" />
    <sodipodi:guide
       orientation="1,0"
       position="81.000001,25.000004"
       id="guide4080" />
    <sodipodi:guide
       orientation="0,1"
       position="78.000001,9.000004"
       id="guide4082" />
    <sodipodi:guide
       orientation="0,1"
       position="79.000001,81.000004"
       id="guide4084" />
    <sodipodi:guide
       orientation="1,0"
       position="9.0000007,39.000004"
       id="guide4086" />
    <inkscape:grid
       type="xygrid"
       id="grid4078"
       empspacing="6" />
  </sodipodi:namedview>
  <metadata
     id="metadata6143">
    <rdf:RDF>
      <cc:Work
         rdf:about="">
        <dc:format>image/svg+xml</dc:format>
        <dc:type
           rdf:resource="http://purl.org/dc/dcmitype/StillImage" />
        <dc:title></dc:title>
      </cc:Work>
    </rdf:RDF>
  </metadata>
  <g
     inkscape:label="Layer 1"
     inkscape:groupmode="layer"
     id="layer1"
     transform="translate(-283.57144,-358.79068)">
    <g
       transform="translate(169.57144,223.42822)"
       id="g5937"
       inkscape:export-filename="envelope02.png"
       inkscape:export-xdpi="90"
       inkscape:export-ydpi="90" />
    <g
       inkscape:export-ydpi="90"
       inkscape:export-xdpi="90"
       inkscape:export-filename="battery02.png"
       id="g6219"
       transform="translate(109.57145,223.42846)">
      <g
         style="fill:none"
         transform="matrix(2.1875001,0,0,1.875,-456.00004,-1657.8169)"
         id="g6223">
        <rect
           style="opacity:0.21171169;fill:none;stroke:none"
           id="rect6225"
           width="48"
           height="48"
           x="288"
           y="152"
           transform="translate(0,804.3622)" />
      </g>
      <path
         style="font-size:15px;font-style:normal;font-variant:normal;font-weight:normal;font-stretch:normal;text-align:center;line-height:125%;letter-spacing:0px;word-spacing:0px;writing-mode:lr-tb;text-anchor:middle;opacity:0.5;fill:#808080;fill-opacity:1;stroke:none;font-family:Ubuntu;-inkscape-font-specification:Ubuntu"
         d="M 86 15 L 10.84375 15.011719 C 3.0000002 15.000019 -1.1842379e-15 17 0 27 L 0 45 L 0 63 C 0 73 3.0000002 74.999981 10.84375 74.988281 L 86 75 C 93.84375 75.01172 97 72.63672 97 63 L 97 58.988281 L 105 58.988281 L 105 45 L 105 31.011719 L 97 31.011719 L 97 27 C 97 17.36328 93.84375 14.98828 86 15 z M 11 21 C 32.618834 21.0096 59.955672 21.0081 86 21 C 90 21 91 22 91 27 L 91 45 L 91 63 C 91 68 90 69 86 69 C 59.95567 68.992 32.61883 68.99 11 69 C 7 69 6 68 6 63 L 6 45 L 6 27 C 6 22 6.9999995 21 11 21 z "
         transform="translate(173.99999,135.36222)"
         id="path4086" />
      <path
         style="font-size:15px;font-style:normal;font-variant:normal;font-weight:normal;font-stretch:normal;text-align:center;line-height:125%;letter-spacing:0px;word-spacing:0px;writing-mode:lr-tb;text-anchor:middle;fill:#38b44a;fill-opacity:1;stroke:none;font-family:Ubuntu;-inkscape-font-specification:Ubuntu"
         d="m 72,15.001953 -61.15625,0.0098 C 3.0000004,14.999985 0,17 0,27 L 0,45 0,63 C 0,73 3.0000004,74.999981 10.84375,74.988281 L 72,74.998047 C 72.002698,74.994146 81.00075,61.984633 86,45 81.00075,27.989732 72.002699,15.005849 72,15.001953 Z"
         transform="translate(173.99999,135.36222)"
         id="path4091"
         class="success"
         inkscape:connector-curvature="0" />
    </g>
  </g>
</svg>

<?xml version="1.0" encoding="UTF-8" standalone="no"?>
<!-- Created with Inkscape (http://www.inkscape.org/) -->

<svg
   xmlns:dc="http://purl.org/dc/elements/1.1/"
   xmlns:cc="http://creativecommons.org/ns#"
   xmlns:rdf="http://www.w3.org/1999/02/22-rdf-syntax-ns#"
   xmlns:svg="http://www.w3.org/2000/svg"
   xmlns="http://www.w3.org/2000/svg"
   xmlns:sodipodi="http://sodipodi.sourceforge.net/DTD/sodipodi-0.dtd"
   xmlns:inkscape="http://www.inkscape.org/namespaces/inkscape"
   width="138.99989"
   height="90"
   id="svg4966"
   version="1.1"
   inkscape:version="0.48+devel r"
   viewBox="0 0 138.99989 90.000001"
   sodipodi:docname="battery-080-charging.svg">
  <defs
     id="defs4968" />
  <sodipodi:namedview
     id="base"
     pagecolor="#ffffff"
     bordercolor="#666666"
     borderopacity="1.0"
     inkscape:pageopacity="0.0"
     inkscape:pageshadow="2"
     inkscape:zoom="0.35"
     inkscape:cx="-237.14305"
     inkscape:cy="128.57144"
     inkscape:document-units="px"
     inkscape:current-layer="layer1"
     showgrid="false"
     fit-margin-top="0"
     fit-margin-left="0"
     fit-margin-right="0"
     fit-margin-bottom="0" />
  <metadata
     id="metadata4971">
    <rdf:RDF>
      <cc:Work
         rdf:about="">
        <dc:format>image/svg+xml</dc:format>
        <dc:type
           rdf:resource="http://purl.org/dc/dcmitype/StillImage" />
        <dc:title></dc:title>
      </cc:Work>
    </rdf:RDF>
  </metadata>
  <g
     inkscape:label="Layer 1"
     inkscape:groupmode="layer"
     id="layer1"
     transform="translate(86.428499,-570.93371)">
    <g
       transform="translate(-369.99994,212.14302)"
       id="g5106"
       inkscape:label="Layer 1">
      <g
         inkscape:export-ydpi="90"
         inkscape:export-xdpi="90"
         inkscape:export-filename="envelope02.png"
         id="g5108"
         transform="translate(169.57144,223.42822)" />
      <g
         transform="translate(109.57145,223.42846)"
         id="g5110"
         inkscape:export-filename="battery02.png"
         inkscape:export-xdpi="90"
         inkscape:export-ydpi="90">
        <g
           id="g5112"
           transform="matrix(2.1875001,0,0,1.875,-456.00004,-1657.8169)"
           style="fill:none">
          <rect
             transform="translate(0,804.3622)"
             y="152"
             x="288"
             height="48"
             width="48"
             id="rect5114"
             style="opacity:0.21171169;fill:none;stroke:none" />
        </g>
        <path
           id="path5116"
           transform="translate(173.99999,135.36222)"
           d="M 86,15 10.84375,15.01172 C 3.0000002,15.000019 0,17 0,27 L 0,45 0,63 C 0,73 3.0000002,74.999981 10.84375,74.988281 L 86,75 c 7.84375,0.01172 11,-2.36328 11,-12 l 0,-4.011719 8,0 L 105,45 l 0,-13.988281 -8,0 L 97,27 C 97,17.36328 93.84375,14.98828 86,15 Z m -75,6 c 21.618834,0.0096 48.955672,0.0081 75,0 4,0 5,1 5,6 l 0,18 0,18 c 0,5 -1,6 -5,6 C 59.95567,68.992 32.61883,68.99 11,69 7,69 6,68 6,63 L 6,45 6,27 c 0,-5 0.9999995,-6 5,-6 z"
           style="font-style:normal;font-variant:normal;font-weight:normal;font-stretch:normal;font-size:15px;line-height:125%;font-family:Ubuntu;-inkscape-font-specification:Ubuntu;text-align:center;letter-spacing:0px;word-spacing:0px;writing-mode:lr-tb;text-anchor:middle;opacity:1;fill:#808080;fill-opacity:1;stroke:none"
           inkscape:connector-curvature="0" />
        <path
           sodipodi:nodetypes="sscssccs"
           inkscape:connector-curvature="0"
           id="path5118"
           transform="translate(-711.00001,-534.63778)"
           d="m 901,697 c -3,0 -4,0 -4,5 l 0,13 0,13 c 0,5 1,5 4,5 l 55,0 0,-36 z"
           style="font-style:normal;font-variant:normal;font-weight:normal;font-stretch:normal;font-size:15px;line-height:125%;font-family:Ubuntu;-inkscape-font-specification:Ubuntu;text-align:center;letter-spacing:0px;word-spacing:0px;writing-mode:lr-tb;text-anchor:middle;opacity:1;fill:#38b44a;fill-opacity:1;stroke:none" />
        <path
           style="display:inline;fill:#808080;fill-opacity:1;stroke:none"
           d="m 298.99567,150.36222 -13.99568,35 14.0002,0 -0.005,25 14.00469,-35 -14.00019,0 z"
           id="path3847"
           inkscape:connector-curvature="0"
           sodipodi:nodetypes="ccccccc" />
      </g>
    </g>
  </g>
</svg>
